services/frontend/src/assets/icons/set.svg

<svg width="24" height="24" fill="none" xmlns="http://www.w3.org/2000/svg"><path d="M16.75 22v-7.5c0-.41.34-.75.75-.75s.75.34.75.75V22c0 .41-.34.75-.75.75s-.75-.34-.75-.75zM16.75 6V2c0-.41.34-.75.75-.75s.75.34.75.75v4c0 .41-.34.75-.75.75s-.75-.34-.75-.75zM5.75 22v-4c0-.41.34-.75.75-.75s.75.34.75.75v4c0 .41-.34.75-.75.75s-.75-.34-.75-.75zM5.75 10V2c0-.41.34-.75.75-.75s.75.34.75.75v8c0 .41-.34.75-.75.75s-.75-.34-.75-.75z" fill="#8D96B5"/><circle cx="6.5" cy="15.5" r="2.5" transform="rotate(180 6.5 15.5)" stroke="#8D96B5" stroke-width="1.5"/><circle cx="17.5" cy="11.5" r="2.5" transform="rotate(180 17.5 11.5)" stroke="#8D96B5" stroke-width="1.5"/></svg>

<svg width="24" height="24" viewBox="0 0 24 24" fill="none" xmlns="http://www.w3.org/2000/svg">
<path d="M16.75 22L16.75 14.5C16.75 14.09 17.09 13.75 17.5 13.75C17.91 13.75 18.25 14.09 18.25 14.5L18.25 22C18.25 22.41 17.91 22.75 17.5 22.75C17.09 22.75 16.75 22.41 16.75 22Z" fill="#8D96B5"/>
<path d="M16.75 6L16.75 2C16.75 1.59 17.09 1.25 17.5 1.25C17.91 1.25 18.25 1.59 18.25 2L18.25 6C18.25 6.41 17.91 6.75 17.5 6.75C17.09 6.75 16.75 6.41 16.75 6Z" fill="#8D96B5"/>
<path d="M5.75 22L5.75 18C5.75 17.59 6.09 17.25 6.5 17.25C6.91 17.25 7.25 17.59 7.25 18L7.25 22C7.25 22.41 6.91 22.75 6.5 22.75C6.09 22.75 5.75 22.41 5.75 22Z" fill="#8D96B5"/>
<path d="M5.75 10L5.75 2C5.75 1.59 6.09 1.25 6.5 1.25C6.91 1.25 7.25 1.59 7.25 2L7.25 10C7.25 10.41 6.91 10.75 6.5 10.75C6.09 10.75 5.75 10.41 5.75 10Z" fill="#8D96B5"/>
<circle cx="6.5" cy="15.5" r="2.5" transform="rotate(180 6.5 15.5)" stroke="#8D96B5" stroke-width="1.5"/>
<circle cx="17.5" cy="11.5" r="2.5" transform="rotate(180 17.5 11.5)" stroke="#8D96B5" stroke-width="1.5"/>
</svg>
